X:234
T:score37
L:1/4
Q:1/4=96
M:1/4
I:linebreak $
K:C
!p! (c/>e/ |[M:2/2] .g) .g .g (c' | .g) .g .g (e/>c/ | .B) .B .c .c |!mf! d z z (G/>d/ |$ %5
 .f) (f/>g/ .e) (e/>f/ | .d) (d/>e/ .c) .c | .d .d .G .G |[M:3/4] c z z |] %9
